img/logo.svg

<svg width="183" height="42" viewBox="0 0 183 42" fill="none" xmlns="http://www.w3.org/2000/svg">
<path d="M14.8648 11.8161C14.6097 12.2533 14.2454 12.6177 13.8082 12.8727C13.371 13.1277 12.8974 13.3099 12.3509 13.4192C11.8044 13.5285 11.2579 13.6014 10.675 13.6014H6.41226L6.37583 6.67905H9.65482C10.2742 6.67905 10.8936 6.71548 11.5494 6.78835C12.2052 6.86121 12.7881 7.00695 13.3346 7.26198C13.8811 7.51701 14.3183 7.84491 14.6826 8.31855C15.0469 8.79218 15.1927 9.37511 15.1927 10.1038C15.2655 10.796 15.1198 11.3425 14.8648 11.8161ZM21.8964 10.1038C21.8964 8.39141 21.6049 6.93408 21.022 5.80465C20.4391 4.67522 19.6375 3.76439 18.6174 3.07215C17.6337 2.41635 16.4314 1.94272 15.1198 1.65125C13.7718 1.35979 12.3509 1.25049 10.8571 1.25049H0L0.0364334 30.3971H6.44869L6.41226 19.0299H11.1122C12.6424 19.0299 14.0633 18.8842 15.4113 18.5927C16.7229 18.3013 17.8523 17.8276 18.836 17.1354C19.7833 16.4432 20.5484 15.5323 21.0949 14.3665C21.6049 13.237 21.8964 11.8161 21.8964 10.1038Z" fill="white"/>
<path d="M38.5093 24.6038C38.2542 25.0774 37.8899 25.4417 37.4527 25.7696C37.0155 26.0611 36.5054 26.3161 35.9589 26.4619C35.376 26.644 34.7931 26.7169 34.2101 26.7169C33.8822 26.7169 33.5543 26.6805 33.19 26.6076C32.8257 26.5347 32.5342 26.389 32.2427 26.2068C31.9877 26.0247 31.7327 25.8061 31.5869 25.5146C31.4048 25.2596 31.3319 24.9317 31.3319 24.5309C31.3319 23.8387 31.5505 23.2922 31.9877 22.9278C32.4249 22.5271 33.0078 22.272 33.6272 22.0534C34.283 21.8713 34.9388 21.762 35.631 21.6891C36.3233 21.6527 36.9062 21.6162 37.3798 21.6162H38.91L38.9465 22.9278C38.91 23.5836 38.7643 24.1301 38.5093 24.6038ZM44.5572 20.6325L40.2581 10.7227C40.1488 10.6498 40.003 10.6134 39.8937 10.5405C38.7279 10.1033 37.2341 9.84829 35.4124 9.84829C33.7729 9.84829 32.1699 10.1033 30.6397 10.6498C29.1095 11.1963 27.7614 11.9979 26.632 13.0544L29.911 16.4427C30.5668 15.7141 31.3319 15.1311 32.1699 14.6939C33.0078 14.2567 33.9187 14.0746 34.9388 14.0746C35.9954 14.0746 36.9426 14.4025 37.7077 15.0583C38.4728 15.7141 38.8736 16.5885 38.91 17.6814C37.6349 17.6814 36.1775 17.7179 34.6109 17.7908C33.0443 17.8636 31.5869 18.1551 30.2025 18.5923C28.818 19.0295 27.6886 19.7581 26.7413 20.7054C26.5227 20.924 26.3041 21.179 26.1584 21.4705V1.5415H19.9647V2.9624C20.7298 3.6182 21.3856 4.45617 21.9321 5.43987C22.5879 6.71503 22.9158 8.28166 22.9158 10.2126C22.9158 12.1072 22.5879 13.6738 22.005 14.949C21.4949 16.0055 20.8391 16.8799 20.0012 17.5722V30.4331H26.1584V27.8099C26.5227 28.3928 26.9599 28.9393 27.5064 29.3765C28.1622 29.8866 28.9273 30.2874 29.8017 30.5424C30.6761 30.7974 31.5505 30.9432 32.4978 30.9432C33.7729 30.9432 34.9752 30.7246 36.1047 30.2509C37.2341 29.7773 38.1449 29.0122 38.8372 27.9556H38.91L38.9465 30.4695H44.6301L44.5572 20.6325Z" fill="white"/>
<path d="M61.8648 1.5415V9.44753H64.1966L63.7958 10.4312H57.4928L53.0844 23.6565H53.0115L47.8744 10.4312H41.2072L49.9511 30.6153L49.5139 31.7811C49.2953 32.3276 48.6031 33.785 48.4209 34.2222C48.2388 34.6229 47.9837 34.9873 47.6923 35.2787C47.4008 35.5702 47.0365 35.7888 46.5993 35.9345C46.1621 36.0803 45.5791 36.1531 44.8869 36.1531C43.9032 36.1531 42.9559 35.9345 42.0451 35.5338L41.2436 40.598C42.7009 41.1081 44.2311 41.3267 45.8342 41.3267C47.3279 41.3267 48.4938 41.1809 49.4046 40.8895C50.3155 40.598 51.0441 40.1608 51.6635 39.6143C52.2464 39.0678 52.7565 38.3756 53.1208 37.5376C53.4852 36.6996 53.8859 35.7524 54.2867 34.6958L61.8648 15.4226V30.4331H68.022V1.57794H61.8648V1.5415Z" fill="white"/>
<path d="M83.9425 22.928C84.7076 23.1101 85.3634 23.3287 85.8734 23.5838C86.3835 23.8388 86.6385 24.2396 86.6385 24.7496C86.6385 25.2961 86.3471 25.6605 85.7641 25.8791C85.1812 26.0977 84.5618 26.1705 83.8332 26.1705C82.8859 26.1705 82.0844 25.9884 81.3921 25.624C80.6999 25.2597 80.0441 24.7132 79.4612 23.9845L75.745 28.1744C75.5264 27.9558 75.3078 27.7372 75.0892 27.5186L76.5101 25.9155V18.7017C76.6194 19.066 76.7651 19.3939 76.9837 19.649C77.4938 20.4141 78.1496 20.997 78.9511 21.3978C79.7526 21.7985 80.5906 22.1264 81.465 22.3086C82.3394 22.5636 83.1774 22.7458 83.9425 22.928ZM105.73 25.5876C105.22 25.6605 104.782 25.6969 104.454 25.6969C103.799 25.6969 103.252 25.624 102.888 25.4419C102.487 25.2597 102.196 25.0047 102.013 24.6768C101.831 24.3489 101.685 23.9481 101.613 23.5109C101.54 23.0737 101.503 22.5636 101.54 22.0171V15.3499H106.968V10.3949H101.54V4.4563H95.3825V10.3949H91.4477V11.9616C90.6462 11.2693 89.6989 10.7957 88.6423 10.4678C87.2943 10.067 85.9827 9.88486 84.6347 9.88486C83.5781 9.88486 82.558 10.0306 81.5743 10.2856C80.5542 10.5407 79.6798 10.9414 78.8782 11.4879C78.0767 12.0344 77.4573 12.7267 76.9837 13.6011C76.8015 13.929 76.6558 14.2569 76.5465 14.6212V10.3949H70.3164V30.3968H76.5101V28.8666C77.348 29.5224 78.2953 29.996 79.3519 30.2875C80.7728 30.6883 82.1937 30.8704 83.5781 30.8704C84.6347 30.8704 85.7277 30.7611 86.8207 30.579C87.9137 30.3604 88.8974 30.0325 89.7718 29.5224C90.6462 29.0123 91.3748 28.3565 91.9213 27.5186C92.5043 26.6806 92.7593 25.624 92.7593 24.3124C92.7593 23.0373 92.5043 22.0536 91.9942 21.2885C91.4841 20.5234 90.8648 19.9404 90.0633 19.5032C89.2982 19.066 88.4602 18.7381 87.5493 18.5195C86.6385 18.3009 85.837 18.1188 85.0719 17.9366C84.3068 17.7544 83.651 17.5358 83.1409 17.3172C82.6309 17.0986 82.3394 16.7343 82.3758 16.2243C82.3758 15.6049 82.6309 15.2041 83.1045 14.9491C83.5781 14.6941 84.0882 14.5848 84.6347 14.5848C86.1285 14.5848 87.3308 15.1313 88.2416 16.2607L91.9942 12.5445C92.2128 12.7631 92.395 12.9817 92.5772 13.2003L91.4113 14.4026V15.3134H95.3461L95.3096 24.8225C95.3096 25.9155 95.5282 26.8628 95.8926 27.6279C96.2569 28.393 96.767 29.0123 97.4228 29.486C98.0786 29.9596 98.8437 30.3239 99.7181 30.5425C100.592 30.7611 101.576 30.8704 102.596 30.8704C103.325 30.8704 104.054 30.834 104.782 30.7611C105.511 30.6883 106.24 30.5061 106.932 30.2511L106.895 25.114C106.64 25.369 106.24 25.5147 105.73 25.5876Z" fill="white"/>
<path d="M76.9482 4.82061C76.9847 4.52915 76.9847 4.34698 76.9847 4.09195C76.9847 3.10825 76.6203 2.27028 75.9645 1.57805C75.2723 0.885817 74.4343 0.521484 73.4506 0.521484C72.9406 0.521484 72.5034 0.630784 72.0662 0.81295C71.629 0.995117 71.2282 1.25015 70.9003 1.57805C70.5724 1.90595 70.3174 2.27028 70.1352 2.70748C69.9531 3.14468 69.8438 3.61831 69.8438 4.09195C69.8438 4.60201 69.9531 5.03921 70.1352 5.47641C70.3174 5.91361 70.5724 6.27794 70.9003 6.60584C71.2282 6.93374 71.5925 7.18878 72.0297 7.37094C72.3576 7.51668 72.6855 7.58954 73.0134 7.62598C72.4305 8.24534 71.5925 8.79184 70.3174 8.93757V9.70267C70.3174 9.66624 76.3653 10.2127 76.9482 4.82061Z" fill="white"/>
<path d="M114.255 14.147H117.607C118.518 14.147 119.173 14.402 119.611 14.8756C120.048 15.3857 120.303 16.0415 120.303 16.843C120.303 17.6446 120.084 18.2639 119.647 18.774C119.21 19.2476 118.554 19.5027 117.643 19.5027H114.291V14.147H114.255ZM117.607 10.3579H109.992V30.3962H114.255V23.2917H117.607C119.72 23.2917 121.432 22.7088 122.671 21.5065C123.91 20.3406 124.529 18.7376 124.529 16.8066C124.529 14.8756 123.91 13.309 122.671 12.1431C121.432 10.9773 119.72 10.3579 117.607 10.3579Z" fill="white"/>
<path d="M136.224 23.5832C136.224 24.7126 135.932 25.5506 135.349 26.0607C134.73 26.6072 133.928 26.8986 132.835 26.8986C131.815 26.8986 131.014 26.6436 130.431 26.0607C129.848 25.5142 129.593 24.7126 129.593 23.5468V10.3579H125.33V23.5832C125.33 25.8421 126.022 27.5909 127.443 28.8296C128.828 30.0319 130.649 30.6513 132.835 30.6513C135.058 30.6513 136.916 30.0319 138.3 28.8296C139.721 27.5909 140.45 25.8056 140.45 23.5468V10.3579H136.187V23.5832H136.224Z" fill="white"/>
<path d="M161.362 18.447C159.978 18.0462 158.994 17.6455 158.411 17.2083C157.937 16.8439 157.719 16.4432 157.719 15.9331C157.719 15.3502 157.937 14.8765 158.375 14.4758C158.848 14.075 159.54 13.8928 160.451 13.8928C161.435 13.8928 162.164 14.1479 162.674 14.6215C163.184 15.0951 163.402 15.7145 163.402 16.516V17.1354H167.519C167.519 16.9532 167.556 16.4432 167.556 16.4432C167.592 14.6944 166.973 13.2006 165.625 11.9619C164.313 10.7231 162.601 10.1038 160.488 10.1038C158.484 10.1038 156.771 10.6503 155.496 11.7068C154.148 12.7998 153.492 14.2207 153.492 15.9331C153.492 17.609 154.112 18.957 155.314 19.9772C156.444 20.9244 158.083 21.726 160.16 22.2725C161.471 22.6368 162.346 23.0376 162.819 23.4748C163.22 23.8391 163.439 24.3127 163.439 24.9321C163.439 25.515 163.22 25.9887 162.783 26.3166C162.273 26.6809 161.544 26.8995 160.597 26.8995C159.54 26.8995 158.702 26.6445 158.047 26.1708C157.464 25.7336 157.172 25.0414 157.172 24.1306V23.5112H153.055L153.019 24.2034C152.982 26.2073 153.747 27.8468 155.314 29.0126C156.808 30.1421 158.593 30.6886 160.597 30.6886C162.674 30.6886 164.386 30.1785 165.661 29.1584C167.009 28.1018 167.701 26.6809 167.701 24.9321C167.701 23.2926 167.119 21.9081 166.026 20.8151C164.933 19.795 163.366 18.9935 161.362 18.447Z" fill="white"/>
<path d="M154.769 29.5583C153.713 28.7567 152.984 27.773 152.62 26.6072H147.009V10.3579H142.746V30.3962H156.117C155.643 30.1776 155.206 29.8862 154.769 29.5583Z" fill="white"/>
<path d="M173.13 26.6436V21.9801H180.927V18.1911H173.13V14.147H182.092V10.3579H168.867V30.4327H182.165V26.6436H173.13Z" fill="white"/>
</svg>

<svg width="183" height="42" fill="none" xmlns="http://www.w3.org/2000/svg"><path d="M14.865 11.816c-.255.437-.62.802-1.057 1.057a4.65 4.65 0 01-1.457.546 8.433 8.433 0 01-1.676.182H6.412L6.376 6.68h3.279a17 17 0 011.894.11c.656.072 1.24.218 1.786.473s.983.583 1.348 1.057c.364.473.51 1.056.51 1.785a2.847 2.847 0 01-.328 1.712zm7.031-1.712c0-1.713-.291-3.17-.874-4.3a7.272 7.272 0 00-2.405-2.732c-.983-.656-2.186-1.13-3.497-1.42-1.348-.292-2.77-.402-4.263-.402H0l.036 29.147H6.45L6.412 19.03h4.7c1.53 0 2.951-.146 4.3-.437 1.31-.292 2.44-.765 3.424-1.458a7.089 7.089 0 002.259-2.769c.51-1.129.801-2.55.801-4.262z" fill="#fff"/><path d="M38.51 24.604c-.256.473-.62.838-1.057 1.166a5.104 5.104 0 01-1.494.692 5.81 5.81 0 01-1.749.255c-.328 0-.656-.037-1.02-.11-.364-.072-.656-.218-.947-.4-.255-.182-.51-.4-.656-.692-.182-.255-.255-.583-.255-.984 0-.692.218-1.239.656-1.603.437-.4 1.02-.656 1.64-.875a12.155 12.155 0 012.003-.364c.692-.036 1.275-.073 1.749-.073h1.53l.037 1.312c-.037.656-.183 1.202-.438 1.676zm6.047-3.971l-4.299-9.91c-.11-.073-.255-.11-.364-.183-1.166-.437-2.66-.692-4.482-.692-1.64 0-3.242.255-4.772.802-1.53.546-2.879 1.348-4.008 2.404l3.279 3.389a8.019 8.019 0 012.259-1.75c.838-.436 1.749-.618 2.769-.618 1.056 0 2.004.328 2.769.983.765.656 1.166 1.53 1.202 2.623a93.94 93.94 0 00-4.3.11 17.178 17.178 0 00-4.407.801 8.387 8.387 0 00-3.462 2.113c-.218.219-.437.474-.583.766V1.54h-6.193v1.421c.765.656 1.42 1.494 1.967 2.478.656 1.275.984 2.842.984 4.773 0 1.894-.328 3.46-.911 4.736-.51 1.057-1.166 1.93-2.004 2.623v12.861h6.157V27.81c.365.583.802 1.13 1.348 1.567.656.51 1.421.91 2.296 1.165a9.46 9.46 0 002.696.401c1.275 0 2.477-.218 3.607-.692 1.13-.474 2.04-1.239 2.732-2.295h.073l.037 2.514h5.683l-.073-9.837z" fill="#fff"/><path d="M61.865 1.542v7.906h2.332l-.401.983h-6.303l-4.409 13.226h-.073L47.874 10.43h-6.667l8.744 20.184-.437 1.166c-.219.547-.91 2.004-1.093 2.441-.182.4-.437.765-.729 1.057-.291.291-.656.51-1.093.655-.437.146-1.02.22-1.712.22a7.004 7.004 0 01-2.842-.62l-.801 5.064c1.457.51 2.987.729 4.59.729 1.494 0 2.66-.146 3.57-.438a6.2 6.2 0 002.26-1.275 6.252 6.252 0 001.457-2.076 63.63 63.63 0 001.166-2.842l7.578-19.273v15.01h6.157V1.578h-6.157v-.036zm22.077 21.386c.766.182 1.421.4 1.931.656.51.255.765.656.765 1.166 0 .546-.29.91-.874 1.13-.583.218-1.202.29-1.93.29-.948 0-1.75-.182-2.442-.546-.692-.364-1.348-.91-1.93-1.64l-3.717 4.19-.656-.655 1.421-1.603v-7.214c.11.364.255.692.474.947a5.045 5.045 0 001.967 1.749c.802.4 1.64.728 2.514.91.874.256 1.712.438 2.477.62zm21.788 2.66a9.47 9.47 0 01-1.276.109c-.655 0-1.202-.073-1.566-.255-.401-.182-.692-.437-.875-.765a3.65 3.65 0 01-.4-1.166 6.476 6.476 0 01-.073-1.494V15.35h5.428v-4.955h-5.428V4.456h-6.158v5.939h-3.934v1.567c-.802-.693-1.75-1.166-2.806-1.494a13.85 13.85 0 00-4.007-.583 12.19 12.19 0 00-3.06.4 8.243 8.243 0 00-2.697 1.203 5.885 5.885 0 00-1.894 2.113 5.063 5.063 0 00-.438 1.02v-4.226h-6.23v20.002h6.194v-1.53a8.022 8.022 0 002.842 1.42c1.42.401 2.842.583 4.226.583 1.057 0 2.15-.109 3.243-.291 1.093-.219 2.076-.547 2.95-1.057.875-.51 1.604-1.165 2.15-2.003.583-.838.838-1.895.838-3.207 0-1.275-.255-2.258-.765-3.024a5.338 5.338 0 00-1.93-1.785 9.51 9.51 0 00-2.515-.983c-.91-.22-1.712-.401-2.477-.583a12.148 12.148 0 01-1.931-.62c-.51-.218-.802-.583-.765-1.093 0-.62.255-1.02.728-1.275a3.162 3.162 0 011.53-.364c1.495 0 2.697.546 3.608 1.676l3.752-3.716c.219.218.401.437.583.655l-1.166 1.203v.91h3.935l-.036 9.51c0 1.093.218 2.04.583 2.805a4.784 4.784 0 001.53 1.858 6.62 6.62 0 002.295 1.056c.874.22 1.858.328 2.878.328a21.9 21.9 0 002.186-.109 8.793 8.793 0 002.15-.51l-.037-5.137c-.255.255-.655.4-1.165.474z" fill="#fff"/><path d="M76.948 4.82c.037-.29.037-.473.037-.728 0-.984-.365-1.822-1.02-2.514C75.272.886 74.434.521 73.45.521c-.51 0-.948.11-1.385.292a3.6 3.6 0 00-1.166.765 3.444 3.444 0 00-.765 1.13c-.182.437-.291.91-.291 1.384 0 .51.11.947.291 1.384.182.438.437.802.765 1.13.328.328.692.583 1.13.765.328.146.656.219.983.255-.583.62-1.42 1.166-2.696 1.312v.765c0-.037 6.048.51 6.631-4.882zm37.307 9.327h3.352c.911 0 1.566.255 2.004.729.437.51.692 1.165.692 1.967s-.219 1.42-.656 1.931c-.437.474-1.093.729-2.004.729h-3.352v-5.356h-.036zm3.352-3.79h-7.615v20.04h4.263v-7.105h3.352c2.113 0 3.825-.583 5.064-1.786 1.239-1.165 1.858-2.768 1.858-4.7 0-1.93-.619-3.497-1.858-4.663-1.239-1.166-2.951-1.785-5.064-1.785zm18.617 13.226c0 1.13-.292 1.968-.875 2.478-.619.546-1.421.838-2.514.838-1.02 0-1.821-.255-2.404-.838-.583-.547-.838-1.348-.838-2.514v-13.19h-4.263v13.226c0 2.26.692 4.008 2.113 5.247 1.385 1.202 3.206 1.821 5.392 1.821 2.223 0 4.081-.62 5.465-1.821 1.421-1.24 2.15-3.024 2.15-5.283v-13.19h-4.263v13.226h.037zm25.138-5.136c-1.384-.4-2.368-.802-2.951-1.239-.474-.364-.692-.765-.692-1.275 0-.583.218-1.056.656-1.457.473-.401 1.165-.583 2.076-.583.984 0 1.713.255 2.223.728.51.474.728 1.093.728 1.895v.62h4.117c0-.183.037-.693.037-.693.036-1.749-.583-3.242-1.931-4.481-1.312-1.239-3.024-1.858-5.137-1.858-2.004 0-3.717.546-4.992 1.603-1.348 1.093-2.004 2.514-2.004 4.226 0 1.676.62 3.024 1.822 4.044 1.13.947 2.769 1.749 4.846 2.296 1.311.364 2.186.765 2.659 1.202.401.364.62.838.62 1.457 0 .583-.219 1.057-.656 1.385-.51.364-1.239.582-2.186.582-1.057 0-1.895-.255-2.55-.728-.583-.437-.875-1.13-.875-2.04v-.62h-4.117l-.036.692c-.037 2.004.728 3.644 2.295 4.81 1.494 1.13 3.279 1.676 5.283 1.676 2.077 0 3.789-.51 5.064-1.53 1.348-1.057 2.04-2.478 2.04-4.227 0-1.64-.582-3.024-1.675-4.117-1.093-1.02-2.66-1.822-4.664-2.368z" fill="#fff"/><path d="M154.769 29.558c-1.056-.801-1.785-1.785-2.149-2.95h-5.611v-16.25h-4.263v20.038h13.371c-.474-.218-.911-.51-1.348-.838zm18.361-2.914V21.98h7.797v-3.789h-7.797v-4.044h8.962v-3.79h-13.225v20.076h13.298v-3.79h-9.035z" fill="#fff"/></svg>
